SVG_Azure_All/Application Fraud Protection.svg

<?xml version="1.0" encoding="UTF-8" standalone="no"?>
<!-- Generated by Microsoft Visio, SVG Export Application Fraud Protection.svg Page-1 -->

<svg
   xmlns:dc="http://purl.org/dc/elements/1.1/"
   xmlns:cc="http://creativecommons.org/ns#"
   xmlns:rdf="http://www.w3.org/1999/02/22-rdf-syntax-ns#"
   xmlns:svg="http://www.w3.org/2000/svg"
   xmlns="http://www.w3.org/2000/svg"
   xmlns:sodipodi="http://sodipodi.sourceforge.net/DTD/sodipodi-0.dtd"
   xmlns:inkscape="http://www.inkscape.org/namespaces/inkscape"
   width="0.70860934in"
   height="0.78547859in"
   viewBox="0 0 51.019815 56.554599"
   xml:space="preserve"
   class="st6"
   version="1.1"
   id="svg68"
   sodipodi:docname="Application Fraud Protection.svg"
   style="font-size:12px;overflow:visible;color-interpolation-filters:sRGB;fill:none;fill-rule:evenodd;stroke-linecap:square;stroke-miterlimit:3"
   inkscape:version="0.92.5 (2060ec1f9f, 2020-04-08)"><metadata
   id="metadata72"><rdf:RDF><cc:Work
       rdf:about=""><dc:format>image/svg+xml</dc:format><dc:type
         rdf:resource="http://purl.org/dc/dcmitype/StillImage" /></cc:Work></rdf:RDF></metadata><sodipodi:namedview
   pagecolor="#ffffff"
   bordercolor="#666666"
   borderopacity="1"
   objecttolerance="10"
   gridtolerance="10"
   guidetolerance="10"
   inkscape:pageopacity="0"
   inkscape:pageshadow="2"
   inkscape:window-width="640"
   inkscape:window-height="480"
   id="namedview70"
   showgrid="false"
   inkscape:zoom="1.8365233"
   inkscape:cx="34.015635"
   inkscape:cy="18.797018"
   inkscape:window-x="0"
   inkscape:window-y="0"
   inkscape:window-maximized="0"
   inkscape:current-layer="svg68" />
	<style
   type="text/css"
   id="style2">
	<![CDATA[
		.st1 {fill:url(#grad0-7);stroke:none;stroke-linecap:butt;stroke-width:0.75}
		.st2 {fill:#000000;fill-opacity:0.32;stroke:none;stroke-linecap:butt;stroke-width:0.75}
		.st3 {fill:#000000;fill-opacity:0.24;stroke:none;stroke-linecap:butt;stroke-width:0.75}
		.st4 {fill:url(#grad0-15);stroke:none;stroke-linecap:butt;stroke-width:0.75}
		.st5 {fill:url(#grad0-23);stroke:none;stroke-linecap:butt;stroke-width:0.75}
		.st6 {fill:none;fill-rule:evenodd;font-size:12px;overflow:visible;stroke-linecap:square;stroke-miterlimit:3}
	]]>
	</style>

	<defs
   id="Patterns_And_Gradients">
		<linearGradient
   id="grad0-7"
   x1="0"
   y1="58.92688"
   x2="46.572393"
   y2="58.92688"
   gradientTransform="scale(1.0954988,0.9128262)"
   gradientUnits="userSpaceOnUse">
			<stop
   offset="0"
   stop-color="#ea8200"
   stop-opacity="1"
   id="stop4" />
			<stop
   offset="1"
   stop-color="#c46a08"
   stop-opacity="1"
   id="stop6" />
		</linearGradient>
		<linearGradient
   id="grad0-15"
   x1="0"
   y1="103.52343"
   x2="35.396662"
   y2="103.52343"
   gradientTransform="scale(1.4413789,0.69378012)"
   gradientUnits="userSpaceOnUse">
			<stop
   offset="0"
   stop-color="#fac240"
   stop-opacity="1"
   id="stop9" />
			<stop
   offset="1"
   stop-color="#f29800"
   stop-opacity="1"
   id="stop11" />
		</linearGradient>
		<linearGradient
   id="grad0-23"
   x1="0"
   y1="102.92277"
   x2="35.518967"
   y2="102.92277"
   gradientTransform="scale(1.4364156,0.69617733)"
   gradientUnits="userSpaceOnUse">
			<stop
   offset="0"
   stop-color="#ffed80"
   stop-opacity="1"
   id="stop14" />
			<stop
   offset="0.96"
   stop-color="#ffdb00"
   stop-opacity="1"
   id="stop16" />
		</linearGradient>
	</defs>
	<g
   id="g66"
   transform="translate(-5.1024712,-5.7322)">
		<title
   id="title20">Page-1</title>
		<g
   id="group9746-1"
   transform="translate(5.10236,-34.0157)">
			<title
   id="title22">Application Fraud Protection</title>
			<g
   id="group9747-2">
				<title
   id="title24">Sheet.9747</title>
				<g
   id="group9748-3">
					<title
   id="title26">Sheet.9748</title>
					<g
   id="shape9749-4">
						<title
   id="title28">Sheet.9749</title>
						<path
   d="m 51.02,78.72 c 0,8.65 -18.74,15.55 -24.09,17.35 -0.93,0.31 -1.91,0.31 -2.83,0 C 18.74,94.27 0,87.37 0,78.72 0,64.95 11.42,53.79 25.51,53.79 c 14.09,0 25.51,11.16 25.51,24.93 z"
   class="st1"
   id="path30"
   inkscape:connector-curvature="0"
   style="fill:url(#grad0-7);stroke:none;stroke-width:0.75;stroke-linecap:butt" />
					</g>
					<g
   id="shape9750-8"
   transform="translate(0,-16.4734)">
						<title
   id="title33">Sheet.9750</title>
						<path
   d="M 0,82.13 24.57,72.01 c 0.6,-0.25 1.28,-0.25 1.89,0 L 51.02,82.13 V 96.38 L 26.46,86.25 c -0.61,-0.24 -1.29,-0.24 -1.89,0 L 0,96.38 Z"
   class="st2"
   id="path35"
   inkscape:connector-curvature="0"
   style="fill:#000000;fill-opacity:0.31999996;stroke:none;stroke-width:0.75;stroke-linecap:butt" />
					</g>
					<g
   id="shape9751-10"
   transform="translate(0,-17.4349)">
						<title
   id="title38">Sheet.9751</title>
						<path
   d="M 0,82.13 24.57,72.01 c 0.6,-0.25 1.28,-0.25 1.89,0 L 51.02,82.13 V 96.38 L 26.46,86.25 c -0.61,-0.24 -1.29,-0.24 -1.89,0 L 0,96.38 Z"
   class="st3"
   id="path40"
   inkscape:connector-curvature="0"
   style="fill:#000000;fill-opacity:0.23999999;stroke:none;stroke-width:0.75;stroke-linecap:butt" />
					</g>
					<g
   id="shape9752-12"
   transform="translate(0,-17.6597)">
						<title
   id="title43">Sheet.9752</title>
						<path
   d="M 0,82.13 24.57,72.01 c 0.6,-0.25 1.28,-0.25 1.89,0 L 51.02,82.13 V 96.38 L 26.46,86.25 c -0.61,-0.24 -1.29,-0.24 -1.89,0 L 0,96.38 Z"
   class="st4"
   id="path45"
   inkscape:connector-curvature="0"
   style="fill:url(#grad0-15);stroke:none;stroke-width:0.75;stroke-linecap:butt" />
					</g>
					<g
   id="shape9753-16"
   transform="translate(0,-30.7175)">
						<title
   id="title48">Sheet.9753</title>
						<path
   d="m 0,83.54 c 0,-0.96 0.59,-1.82 1.49,-2.19 l 23.08,-9.51 c 0.6,-0.25 1.28,-0.25 1.89,0 l 23.08,9.51 c 0.9,0.37 1.48,1.23 1.48,2.19 V 96.38 L 26.46,86.25 c -0.61,-0.24 -1.29,-0.24 -1.89,0 L 0,96.38 Z"
   class="st2"
   id="path50"
   inkscape:connector-curvature="0"
   style="fill:#000000;fill-opacity:0.31999996;stroke:none;stroke-width:0.75;stroke-linecap:butt" />
					</g>
					<g
   id="shape9754-18"
   transform="translate(0,-31.679)">
						<title
   id="title53">Sheet.9754</title>
						<path
   d="m 0,83.54 c 0,-0.96 0.59,-1.82 1.49,-2.19 l 23.08,-9.51 c 0.6,-0.25 1.28,-0.25 1.89,0 l 23.08,9.51 c 0.9,0.37 1.48,1.23 1.48,2.19 V 96.38 L 26.46,86.25 c -0.61,-0.24 -1.29,-0.24 -1.89,0 L 0,96.38 Z"
   class="st3"
   id="path55"
   inkscape:connector-curvature="0"
   style="fill:#000000;fill-opacity:0.23999999;stroke:none;stroke-width:0.75;stroke-linecap:butt" />
					</g>
					<g
   id="shape9755-20"
   transform="translate(0,-31.9046)">
						<title
   id="title58">Sheet.9755</title>
						<path
   d="m 0,83.54 c 0,-0.96 0.59,-1.82 1.49,-2.19 l 23.08,-9.51 c 0.6,-0.25 1.28,-0.25 1.89,0 l 23.08,9.51 c 0.9,0.37 1.48,1.23 1.48,2.19 V 96.38 L 26.46,86.25 c -0.61,-0.24 -1.29,-0.24 -1.89,0 L 0,96.38 Z"
   class="st5"
   id="path60"
   inkscape:connector-curvature="0"
   style="fill:url(#grad0-23);stroke:none;stroke-width:0.75;stroke-linecap:butt" />
					</g>
				</g>
			</g>
		</g>
	</g>
</svg>

<?xml version="1.0" encoding="UTF-8" standalone="no"?>
<!DOCTYPE svg PUBLIC "-//W3C//DTD SVG 1.1//EN" "http://www.w3.org/Graphics/SVG/1.1/DTD/svg11.dtd">
<!-- Generated by Microsoft Visio, SVG Export Application Fraud Protection.svg Page-1 -->
<svg xmlns="http://www.w3.org/2000/svg" xmlns:xlink="http://www.w3.org/1999/xlink" xmlns:ev="http://www.w3.org/2001/xml-events"
		width="0.850394in" height="1.33858in" viewBox="0 0 61.2283 96.378" xml:space="preserve" color-interpolation-filters="sRGB"
		class="st6">
	<style type="text/css">
	<![CDATA[
		.st1 {fill:url(#grad0-7);stroke:none;stroke-linecap:butt;stroke-width:0.75}
		.st2 {fill:#000000;fill-opacity:0.32;stroke:none;stroke-linecap:butt;stroke-width:0.75}
		.st3 {fill:#000000;fill-opacity:0.24;stroke:none;stroke-linecap:butt;stroke-width:0.75}
		.st4 {fill:url(#grad0-15);stroke:none;stroke-linecap:butt;stroke-width:0.75}
		.st5 {fill:url(#grad0-23);stroke:none;stroke-linecap:butt;stroke-width:0.75}
		.st6 {fill:none;fill-rule:evenodd;font-size:12px;overflow:visible;stroke-linecap:square;stroke-miterlimit:3}
	]]>
	</style>

	<defs id="Patterns_And_Gradients">
		<linearGradient id="grad0-7" x1="0" y1="0" x2="1" y2="0" gradientTransform="rotate(19.480821974984 0.5 0.5)">
			<stop offset="0" stop-color="#ea8200" stop-opacity="1"/>
			<stop offset="1" stop-color="#c46a08" stop-opacity="1"/>
		</linearGradient>
		<linearGradient id="grad0-15" x1="0" y1="0" x2="1" y2="0" gradientTransform="rotate(46.574128639405 0.5 0.5)">
			<stop offset="0" stop-color="#fac240" stop-opacity="1"/>
			<stop offset="1" stop-color="#f29800" stop-opacity="1"/>
		</linearGradient>
		<linearGradient id="grad0-23" x1="0" y1="0" x2="1" y2="0" gradientTransform="rotate(81.414950947957 0.5 0.5)">
			<stop offset="0" stop-color="#ffed80" stop-opacity="1"/>
			<stop offset="0.96" stop-color="#ffdb00" stop-opacity="1"/>
		</linearGradient>
	</defs>
	<g>
		<title>Page-1</title>
		<g id="group9541-1" transform="translate(5.10236,-34.0157)">
			<title>Application Fraud Protection</title>
			<g id="group9542-2">
				<title>Sheet.9542</title>
				<g id="group9543-3">
					<title>Sheet.9543</title>
					<g id="shape9544-4">
						<title>Sheet.9544</title>
						<path d="M51.02 78.72 C51.02 87.37 32.28 94.27 26.93 96.07 C26 96.38 25.02 96.38 24.1 96.07 C18.74 94.27
									 0 87.37 0 78.72 C0 64.95 11.42 53.79 25.51 53.79 C39.6 53.79 51.02 64.95 51.02 78.72 Z"
								class="st1"/>
					</g>
					<g id="shape9545-8" transform="translate(0,-16.4734)">
						<title>Sheet.9545</title>
						<path d="M0 82.13 L24.57 72.01 C25.17 71.76 25.85 71.76 26.46 72.01 L51.02 82.13 L51.02 96.38 L26.46 86.25
									 C25.85 86.01 25.17 86.01 24.57 86.25 L0 96.38 L0 82.13 Z" class="st2"/>
					</g>
					<g id="shape9546-10" transform="translate(0,-17.4349)">
						<title>Sheet.9546</title>
						<path d="M0 82.13 L24.57 72.01 C25.17 71.76 25.85 71.76 26.46 72.01 L51.02 82.13 L51.02 96.38 L26.46 86.25
									 C25.85 86.01 25.17 86.01 24.57 86.25 L0 96.38 L0 82.13 Z" class="st3"/>
					</g>
					<g id="shape9547-12" transform="translate(0,-17.6597)">
						<title>Sheet.9547</title>
						<path d="M0 82.13 L24.57 72.01 C25.17 71.76 25.85 71.76 26.46 72.01 L51.02 82.13 L51.02 96.38 L26.46 86.25
									 C25.85 86.01 25.17 86.01 24.57 86.25 L0 96.38 L0 82.13 Z" class="st4"/>
					</g>
					<g id="shape9548-16" transform="translate(0,-30.7175)">
						<title>Sheet.9548</title>
						<path d="M0 83.54 C0 82.58 0.59 81.72 1.49 81.35 L24.57 71.84 C25.17 71.59 25.85 71.59 26.46 71.84 L49.54
									 81.35 C50.44 81.72 51.02 82.58 51.02 83.54 L51.02 96.38 L26.46 86.25 C25.85 86.01 25.17 86.01
									 24.57 86.25 L0 96.38 L0 83.54 Z" class="st2"/>
					</g>
					<g id="shape9549-18" transform="translate(0,-31.679)">
						<title>Sheet.9549</title>
						<path d="M0 83.54 C0 82.58 0.59 81.72 1.49 81.35 L24.57 71.84 C25.17 71.59 25.85 71.59 26.46 71.84 L49.54
									 81.35 C50.44 81.72 51.02 82.58 51.02 83.54 L51.02 96.38 L26.46 86.25 C25.85 86.01 25.17 86.01
									 24.57 86.25 L0 96.38 L0 83.54 Z" class="st3"/>
					</g>
					<g id="shape9550-20" transform="translate(0,-31.9046)">
						<title>Sheet.9550</title>
						<path d="M0 83.54 C0 82.58 0.59 81.72 1.49 81.35 L24.57 71.84 C25.17 71.59 25.85 71.59 26.46 71.84 L49.54
									 81.35 C50.44 81.72 51.02 82.58 51.02 83.54 L51.02 96.38 L26.46 86.25 C25.85 86.01 25.17 86.01
									 24.57 86.25 L0 96.38 L0 83.54 Z" class="st5"/>
					</g>
				</g>
			</g>
		</g>
	</g>
</svg>
